icons/repo-push-16.svg

<svg xmlns="http://www.w3.org/2000/svg" width="16" height="16" viewBox="0 0 16 16"><path d="M1 2.5A2.5 2.5 0 013.5 0h8.75a.75.75 0 01.75.75v3.5a.75.75 0 01-1.5 0V1.5h-8a1 1 0 00-1 1v6.708A2.493 2.493 0 013.5 9h3.25a.75.75 0 010 1.5H3.5a1 1 0 000 2h5.75a.75.75 0 010 1.5H3.5A2.5 2.5 0 011 11.5zm13.23 7.79h-.001l-1.224-1.224v6.184a.75.75 0 01-1.5 0V9.066L10.28 10.29a.75.75 0 01-1.06-1.061l2.505-2.504a.75.75 0 011.06 0L15.29 9.23a.751.751 0 01-.018 1.042.751.751 0 01-1.042.018z"/></svg>

<svg xmlns="http://www.w3.org/2000/svg" width="16" height="16" viewBox="0 0 16 16">
  <defs/>
  <path d="M1,2.5 C1,1.119 2.119,0 3.5,0 L12.25,0 C12.664,0 13,0.336 13,0.75 L13,4.25 C13,4.664 12.664,5 12.25,5 C11.836,5 11.5,4.664 11.5,4.25 L11.5,1.5 L3.5,1.5 C2.948,1.5 2.5,1.948 2.5,2.5 L2.5,9.208 C2.815,9.07 3.156,9 3.5,9 L6.75,9 C7.164,9 7.5,9.336 7.5,9.75 C7.5,10.164 7.164,10.5 6.75,10.5 L3.5,10.5 C2.948,10.5 2.5,10.948 2.5,11.5 C2.5,12.052 2.948,12.5 3.5,12.5 L9.25,12.5 C9.664,12.5 10,12.836 10,13.25 C10,13.664 9.664,14 9.25,14 L3.5,14 C2.119,14 1,12.881 1,11.5 Z M14.23,10.29 L14.229,10.29 L13.005,9.066 L13.005,15.25 C13.005,15.664 12.669,16 12.255,16 C11.841,16 11.505,15.664 11.505,15.25 L11.505,9.066 L10.28,10.29 C9.986,10.574 9.518,10.57 9.229,10.28 C8.939,9.991 8.936,9.523 9.22,9.229 L11.725,6.725 C12.018,6.433 12.492,6.433 12.785,6.725 L15.29,9.23 C15.565,9.526 15.557,9.986 15.272,10.272 C14.986,10.557 14.526,10.565 14.23,10.29 Z"/>
</svg>
